X: 30278
T: Old Lurgan Town
R: jig
M: 6/8
K: Dmajor
DEF AFA|dBd edB|DEF AFA|fed A2F|
DEF AFA|dBd e2f|afa ecA|dBF D2F|
DEF AFA|dBd edB|DEF AFA|afd A2F|
DEF AFA|dBd e2f|afa ecA|dBF D2f||
afa ecA|fec ecA|afa ecA|afa e2f|
afa ecA|fec ecA|EFA BcA|BAF Ace|
afa ecA|fec ecA|afa ecA|afa e2f|
afa ecA|fec ecA|EFA cBA|cBA A2E||

